!!!COM: Corelli, Arcangelo
!!!OTL: Sonate a tre [in F]
!!!XEN: Trio Sonata Opus 1, No. 1
!!!OPS: Opus 1
!!!ONM: No. 1
!!!OMV: Movement 2.
!!!YEC: Copyright 1994, Center for Computer Assisted Research in the Humanities
!!!YEM: Rights to all derivative electronic formats reserved.
!!!YEM: Refer to licensing agreement for further details.
!! For the following instrumentation: Violino I & II, Violone/Archlute,
!!    and Organo.
!! Allegro.
**kern	**kern	**kern	**kern
*ICklav	*ICstr	*ICstr	*ICstr
*Iorgan	*Icello	*Ivioln	*Ivioln
*	*Iarchl	*	*
!Organo	!Violone	!Violin 2	!Violin 1
!	! or	!	!
!	!Archlute	!	!
*>[A,A]	*>[A,A]	*>[A,A]	*>[A,A]
*>A	*>A	*>A	*>A
*clefF4	*clefF4	*clefG2	*clefG2
*k[b-]	*k[b-]	*k[b-]	*k[b-]
*F:	*F:	*F:	*F:
*M4/4	*M4/4	*M4/4	*M4/4
*MM66	*MM66	*MM66	*MM66
=1-	=1-	=1-	=1-
4FF/	1r	1r	2f/
2F\	.	.	.
.	.	.	2g/
4E\	.	.	.
=2	=2	=2	=2
2F\	1r	16r	2a/
.	.	16cc\LL	.
.	.	16b-\	.
.	.	16cc\JJ	.
.	.	16a/LL	.
.	.	16g/	.
.	.	16f/	.
.	.	16e/JJ	.
2G\	.	16d\LL	2b-\
.	.	16dd\	.
.	.	16cc\	.
.	.	16dd\JJ	.
.	.	16b-/LL	.
.	.	16a/	.
.	.	16g/	.
.	.	16f/JJ	.
=3	=3	=3	=3
2A\	1r	16e\LL	2cc\
.	.	16ee\	.
.	.	16dd\	.
.	.	16ee\JJ	.
.	.	16cc/LL	.
.	.	16b-/	.
.	.	16a/	.
.	.	16g/JJ	.
2D\	.	16f\LL	4dd\
.	.	16ff\	.
.	.	16ee\	.
.	.	16ff\JJ	.
.	.	16dd\LL	[4dd\
.	.	16cc\	.
.	.	16bn\	.
.	.	16a\JJ	.
=4	=4	=4	=4
4G\	1r	16b/LL	4dd\]
.	.	16g/	.
.	.	16a/	.
.	.	16b/JJ	.
4A\	.	16cc\LL	2cc\
.	.	16dd\	.
.	.	16ee\	.
.	.	16ff\JJ	.
4G\	.	16gg\LL	.
.	.	16ff\	.
.	.	16ee\	.
.	.	16ff\JJ	.
4GG/	.	8.dd\L	4b\
.	.	16dd\Jk	.
=5	=5	=5	=5
2C/	2C/	4ee\	4cc\
.	.	2cc\	4r
2D\	2D\	.	2r
.	.	4b\	.
=6	=6	=6	=6
2E\	2E\	[4cc\	16r
.	.	.	16gg\LL
.	.	.	16ff\
.	.	.	16gg\JJ
.	.	16cc/LL]	16ee\LL
.	.	16b-/	16dd\
.	.	16a/	16cc\
.	.	16g/JJ	16b-\JJ
2F\	2F\	4f/	16a\LL
.	.	.	16aa\
.	.	.	16gg\
.	.	.	16aa\JJ
.	.	4aa\	16ff\LL
.	.	.	16ee\
.	.	.	16dd\
.	.	.	16cc\JJ
=7	=7	=7	=7
2G\	2G\	[4gg\	16b-\LL
.	.	.	16bb-\
.	.	.	16aa\
.	.	.	16bb-\JJ
.	.	16gg\LL]	16gg\LL
.	.	16aa\	16ff\
.	.	16gg\	16ee\
.	.	16ff\JJ	16dd\JJ
2A\	2A\	16ee\LL	16cc\LL
.	.	16cc\	16ee\
.	.	16dd\	16ff\
.	.	16ee\JJ	16gg\JJ
.	.	16ff\LL	16aa\LL
.	.	16gg\	16bb-\
.	.	16ff\	16aa\
.	.	16ee\JJ	16gg\JJ
=8	=8	=8	=8
4B-\	4B-\	(16dd\LL	(16ff\LL
.	.	16cc\)	16ee\)
.	.	(16dd\	(16ff\
.	.	16ee\JJ)	16gg\JJ)
4F\	4F\	8ff\L	(16aa\LL
.	.	.	16gg\)
.	.	8ff\J	(16aa\
.	.	.	16bb-\JJ)
4c\	4c\	4.ff\	8gg\L
.	.	.	8aa\J
4C/	4C/	.	8.gg\L
.	.	8ee\	.
.	.	.	16gg\Jk
=9	=9	=9	=9
4FF/	2F\	2ff\	4ff\
2F\	.	.	4r
.	2r	2gg\	4r
4E\	.	.	16r
.	.	.	16cc\LL
.	.	.	16b-\
.	.	.	16cc\JJ
=10	=10	=10	=10
2F\	16r	2aa\	4a/
.	16c\LL	.	.
.	16B-\	.	.
.	16c\JJ	.	.
.	16A\LL	.	4cc\
.	16G\	.	.
.	16F\	.	.
.	16E\JJ	.	.
2D\	16D\LL	2bb-\	16r
.	16d\	.	16ff\LL
.	16c\	.	16ee\
.	16d\JJ	.	16ff\JJ
.	16B-\LL	.	4dd\
.	16A\	.	.
.	16G\	.	.
.	16F\JJ	.	.
=11	=11	=11	=11
4E\	16E\LL	2ccc\	16r
.	16e\	.	16gg\LL
.	16d\	.	16ff\
.	16e\JJ	.	16gg\JJ
4C/	16c\LL	.	4ee\
.	16B-\	.	.
.	16A\	.	.
.	16G\JJ	.	.
4F\	16F\LL	2ddd\	16r
.	16f\	.	16aa\LL
.	16e\	.	16gg\
.	16f\JJ	.	16aa\JJ
4D\	16d\LL	.	4ff\
.	16c\	.	.
.	16Bn\	.	.
.	16A\JJ	.	.
=12	=12	=12	=12
4G\	4G\	4bb\	16r
.	.	.	16gg\LL
.	.	.	16ff\
.	.	.	16gg\JJ
4C/	16C\LL	4ccc\	16ee\LL
.	16D\	.	16ff\
.	16E\	.	16gg\
.	16F\JJ	.	16aa\JJ
8G\L	8G\L	4.ccc\	8dd\L
8F\	8F\	.	8ee\J
8G\	8G\	.	8.dd\L
8GG\J	8GG\J	8bb\	.
.	.	.	16dd\Jk
=13	=13	=13	=13
2C/	2C/	16ccc\LL	2cc\
.	.	16ee\	.
.	.	16ff\	.
.	.	16gg\JJ	.
.	.	[4aa\	.
4D\	2r	16aa\LL]	2b-\
.	.	16dd\	.
.	.	16ee\	.
.	.	16ff\JJ	.
4E\	.	[4gg\	.
=14	=14	=14	=14
4F\	1r	16gg\LL]	2a/
.	.	16cc\	.
.	.	16dd\	.
.	.	16ee\JJ	.
4AA/	.	2ff\	.
4BB-/	.	.	2g/
4C/	.	4ee\	.
=15	=15	=15	=15
4FF/	[4F\	2ff\	16f/LL
.	.	.	16a/
.	.	.	16b-/
.	.	.	16cc/JJ
4F\	16F\LL]	.	[4dd\
.	16D\	.	.
.	16E\	.	.
.	16F\JJ	.	.
4G\	[4G\	2ee\	16dd\LL]
.	.	.	16g\
.	.	.	16a\
.	.	.	16b-\JJ
4C/	16G\LL]	.	[4cc\
.	16C\	.	.
.	16D\	.	.
.	16E\JJ	.	.
=16	=16	=16	=16
4F\	4F\	2dd\	16cc/LL]
.	.	.	16f/
.	.	.	16g/
.	.	.	16a/JJ
8D/L	8D/L	.	2b-\
8BB-/J	8BB-/J	.	.
4F\	4F\	2cc\	.
4FF/	4FF/	.	4a/
=17	=17	=17	=17
4BB-/	4BB-/	4.b-\	8b-\L
.	.	.	8cc\
8B-\L	8B-\L	.	8dd\
8G\J	8G\J	8b-\	8ee\J
4F\	4F\	4.a/	8ff\L
.	.	.	8cc\J
4FF/	4FF/	.	[4ff\
.	.	8dd\	.
=18	=18	=18	=18
4GG/	4GG/	8b/L	4ff\]
.	.	8g/J	.
8AA/L	8AA/L	2cc\	4ee\
8E/J	8E/J	.	.
4F\	4F\	.	2dd\
4G\	4G\	4b\	.
=19	=19	=19	=19
2c\	2c\	[4cc\	16cc\LL
.	.	.	16ee\
.	.	.	16ff\
.	.	.	16gg\JJ
.	.	16cc\LL]	[4aa\
.	.	16a\	.
.	.	16b-\	.
.	.	16cc\JJ	.
2B-\	2B-\	[4dd\	16aa\LL]
.	.	.	16dd\
.	.	.	16ee\
.	.	.	16ff\JJ
.	.	16dd\LL]	[4gg\
.	.	16g\	.
.	.	16a\	.
.	.	16b-\JJ	.
=20	=20	=20	=20
2A\	2A\	[4cc\	16gg\LL]
.	.	.	16cc\
.	.	.	16dd\
.	.	.	16ee\JJ
.	.	16cc/LL]	2ff\
.	.	16f/	.
.	.	16g/	.
.	.	16a/JJ	.
2G\	2G\	8b-/L	.
.	.	8a/J	.
.	.	8g\L	4ee\
.	.	(16cc\L	.
.	.	16b-\JJ)	.
=21	=21	=21	=21
4F\	4F\	16a\LL	16ff\LL
.	.	16cc\	16a\
.	.	16dd\	16b-\
.	.	16ee\JJ	16cc\JJ
4D\	4D\	16ff\LL	16dd\LL
.	.	16aa\	16ff\
.	.	16gg\	16ee\
.	.	16ff\JJ	16dd\JJ
4AA/	4AA/	4ee\	8cc#\
.	.	.	4aa\
4BB-/	4BB-/	4dd\	.
.	.	.	[8gg\
=22	=22	=22	=22
4AA/	4AA/	4cc#\	8gg\]
.	.	.	4ff\
4GG/	4GG/	4b\	.
.	.	.	16gg\LL
.	.	.	16ff\JJ
2AA/	2AA/	8cc#\L	16ee\LL
.	.	.	16aa\
.	.	8dd\J	16gg\
.	.	.	16ff\JJ
.	.	8.dd\L	8.ee\L
.	.	16cc#\Jk	16ee\Jk
=23	=23	=23	=23
4DD/	4D\	4dd\	2dd\
2D\	2D\	4r	.
.	.	2r	2ee\
4C#/	4C#/	.	.
=24	=24	=24	=24
4D\	4D\	16r	2ff\
.	.	16aa\LL	.
.	.	16gg\	.
.	.	16aa\JJ	.
4d\	16r	4ff\	.
.	16d\LL	.	.
.	16c\	.	.
.	16d\JJ	.	.
4B-\	4B-\	16r	2gg\
.	.	16bb-\LL	.
.	.	16aa\	.
.	.	16bb-\JJ	.
4c\	16r	[4gg\	.
.	16c\LL	.	.
.	16B-\	.	.
.	16c\JJ	.	.
=25	=25	=25	=25
2F\	2F\	16gg\LL]	4.aa\
.	.	16cc\	.
.	.	16dd\	.
.	.	16ee\JJ	.
.	.	16ff\LL	.
.	.	16ee\	.
.	.	16dd\	8ff\
.	.	16cc\JJ	.
2G\	2G\	16b-\LL	4ff\
.	.	16cc\	.
.	.	16b-\	.
.	.	16a\JJ	.
.	.	16g\LL	4ee\
.	.	16cc\	.
.	.	16b-\	.
.	.	16cc\JJ	.
=26	=26	=26	=26
2A\	2A\	4a/	16ff\LL
.	.	.	16cc\
.	.	.	16b-\
.	.	.	16cc\JJ
.	.	4r	16a/LL
.	.	.	16g/
.	.	.	16f/
.	.	.	16e/JJ
2B-\	2B-\	2r	16d\LL
.	.	.	16dd\
.	.	.	16cc\
.	.	.	16dd\JJ
.	.	.	16b-/LL
.	.	.	16a/
.	.	.	16g/
.	.	.	16f/JJ
=27	=27	=27	=27
4c\	4c\	2cc\	8e/L
.	.	.	8c/J
4E\	4E\	.	2cc\
4D\	4D\	2dd\	.
4GG/	4GG/	.	4b\
=28	=28	=28	=28
2C/	2C/	16ee\LL	4cc\
.	.	16gg\	.
.	.	16ff\	.
.	.	16gg\JJ	.
.	.	16ee\LL	4r
.	.	16dd\	.
.	.	16cc\	.
.	.	16b-\JJ	.
2F\	2F\	4a/	16r
.	.	.	16cc\LL
.	.	.	16b-\
.	.	.	16cc\JJ
.	.	4r	16a/LL
.	.	.	16g/
.	.	.	16f/
.	.	.	16e/JJ
=29	=29	=29	=29
2B-\	2B-\	16r	4d/
.	.	16ff\LL	.
.	.	16ee\	.
.	.	16ff\JJ	.
.	.	16dd\LL	4r
.	.	16cc\	.
.	.	16b-\	.
.	.	16a\JJ	.
2BB-/	2BB-/	4g/	16r
.	.	.	16b-\LL
.	.	.	16a\
.	.	.	16b-\JJ
.	.	4r	16g/LL
.	.	.	16f/
.	.	.	16e/
.	.	.	16d/JJ
=30	=30	=30	=30
2C/	2C/	2cc\	16e/LL
.	.	.	16g/
.	.	.	16a/
.	.	.	16b-/JJ
.	.	.	2cc\
2G\	2G\	2dd\	.
.	.	.	[4b-\
=31	=31	=31	=31
4C/	4C/	4ee\	4b-\]
4FF/	4FF/	2ff\	4a/
4GG/	4GG/	.	4bn\
4AA/	4AA/	4ee\	[4cc\
=32	=32	=32	=32
4FF/	4FF/	2dd\	4cc\]
4GG/	4GG/	.	4b\
2C/	4C/	2cc\	16cc\LL
.	.	.	16ee\
.	.	.	16ff\
.	.	.	16gg\JJ
.	16r	.	[4aa\
.	16A\LL	.	.
.	16B-\	.	.
.	16c\JJ	.	.
=33	=33	=33	=33
4D\	[4d\	2b-\	16aa\LL]
.	.	.	16dd\
.	.	.	16ee\
.	.	.	16ff\JJ
4BB-/	16d\LL]	.	[4gg\
.	16G\	.	.
.	16A\	.	.
.	16B-\JJ	.	.
4C/	[4c\	2a/	16gg\LL]
.	.	.	16cc\
.	.	.	16dd\
.	.	.	16ee\JJ
4AA/	16c\LL]	.	[4ff\
.	16F\	.	.
.	16G\	.	.
.	16A\JJ	.	.
=34	=34	=34	=34
4BB-/	4B-\	2g/	4ff\]
4C/	4c\	.	4ee\
2F\	2F\	16f/LL	4ff\
.	.	16a/	.
.	.	16b-/	.
.	.	16cc/JJ	.
.	.	[4dd\	16r
.	.	.	16d/LL
.	.	.	16e/
.	.	.	16f/JJ
=35	=35	=35	=35
2E\	2E\	16dd\LL]	[4g/
.	.	16g\	.
.	.	16a\	.
.	.	16b-\JJ	.
.	.	[4cc\	16g/LL]
.	.	.	16c/
.	.	.	16d/
.	.	.	16e/JJ
2D\	2D\	16cc\LL]	[4f/
.	.	16ff\	.
.	.	16gg\	.
.	.	16aa\JJ	.
.	.	[4bb-\	16f\LL]
.	.	.	16b-\
.	.	.	16cc\
.	.	.	16dd\JJ
=36	=36	=36	=36
2C/	2C/	16bb-\LL]	[4ee\
.	.	16ee\	.
.	.	16ff\	.
.	.	16gg\JJ	.
.	.	[4aa\	16ee\LL]
.	.	.	16a\
.	.	.	16b-\
.	.	.	16cc\JJ
2BB-/	2BB-/	16aa\LL]	[4dd\
.	.	16dd\	.
.	.	16ee\	.
.	.	16ff\JJ	.
.	.	[4gg\	16dd\LL]
.	.	.	16g\
.	.	.	16a\
.	.	.	16b-\JJ
=37	=37	=37	=37
2AA/	2AA/	16gg\LL]	[4cc\
.	.	16cc\	.
.	.	16dd\	.
.	.	16ee\JJ	.
.	.	2ff\	16cc/LL]
.	.	.	16f/
.	.	.	16g/
.	.	.	16a/JJ
2GG/	2GG/	.	16b-\LL
.	.	.	16cc\
.	.	.	16b-\
.	.	.	16a\JJ
.	.	4ee\	8.g/L
.	.	.	16g/Jk
=38	=38	=38	=38
1FF/	1FF/	1ff\	1a/
==	==	==	==
*-	*-	*-	*-
!!!CDT: 1653/2/17/-1713/1/8
!!!OCY: Italia
!!!ODE: Queen Christina Alexandra of Sweden
!!!ODT: 1681//
!!!OPC: Roma; Rome
!!!AGN: trio sonata
!!!AST: baroque, chamber
!!!AMT: simple quadruple
!!!YOR1: J. Joachim & F. Chrysander (eds.) Les Oeuvre de Arcangelo Corelli
!!!YOR2: London: Augener & Co. 1871
!!!YOY: 1871
!!!AIN: archl cello organ violn
!!!EEV: 1.1
!!!RDT: 1993 August 16
!!!YER: 1994 December 14
!!!EMD: 1996 July 9
!!!YEN: United States of America
!!!EFL: 2/4
!!!ENC: Frances Bennion & Steven Rasmussen
!!!EED: W.B. Hewlett
!!!VTS: 248026237
